X:1
T:Glorious Resurrection
T:Glorious Resurrection
T:Gideon Froelich
T:Marian Froelich, 1888
T:Public Domain Courtesy of the Cyber Hymnal™
T:Public Domain Courtesy of the Cyber Hymnal™
C:Gideon Froelich
Z:Public Domain
Z:Courtesy of the Cyber Hymnal™
%%score ( 1 2 ) ( 3 4 )
L:1/8
Q:1/4=95
M:4/4
K:F
V:1 treble 
V:2 treble 
V:3 bass 
V:4 bass 
V:1
 F>[FG] | [FA]2 [FA]2 (3(BA)[F^G] | [FA]2 F2 [FA]>[GB] | [Ac]2 [Ac]2 (3([Bd][Ac])[^G=B] | %4
w: 1.~When the|win- ter snow * de-|scend- ed, Child- ren’s|thoughts with rap- * ture|
w: 2.~But when|spring comes soft- * ly|breath- ing, Melts the|ice, and flow- * ers|
w: 3.~So while|chimes their songs * are|peal- ing, Sing we|with de- vo- * tion’s|
 [Ac]2 [FA]2 [FA]>[DF] | [CE]2 [EG]2 (3(=BA)[FB] | [Ec]4 [Bd]>[EG] | [GB]2 [GB]2 (3([EG][FA])[GB] | %8
w: tend- ed T’ward the|birth- day of * the|Lord; And through-|out the Christ- * mas|
w: wreath- ing, Gar- lands|fair each bank * and|strand. Then we|sing, “The Lord * is|
w: feel- ing, “Yea, the|Lord is ris’n * in-|deed!” We with|Him shall rise, * death|
 [Ac]2 [Ac]2 [Bd]>[EG] | [FA]2 [Gc]2 (3(fe)[Fd] | [Ge]2 [Ec]2 [Fd]>[F^c] | %11
w: fes- tal, Win- ter|pure and snow * of|ves- tal, Plea- sures|
w: ris- en, He has|burst the rock- * y|pris- on!” East- er|
w: scorn- ing, To an|end- less East- * er|morn- ing! Glor- ious|
 [Fd]2 [FG]2 (3([GB][FA])[EG] | F4 ||[M:9/8][Q:1/4=125] (FA)"^Refrain"c | d3 (z3 x6 | c6) f x2 | %16
w: rich did oft * af-|ford.|Hal- * le-|lu-|* jah!|
w: car- ols fill * the|land.||||
w: re- sur- rect- * ion|creed.||||
 e3 (z3 x6 | d6) (d^c)[=Gd] | c3 [Ac]2 [Ac] (ed)[Be] | [Af]6 |] %20
w: Hal-|* le- * lu-|jah! Christ is ris- * en|to|
w: ||||
w: ||||
V:2
 F3/2 x/ | x4 F2 | x2 F2 x2 | x6 | x6 | x4 E2 | x6 | x6 | x6 | x4 F2 | x6 | x6 | F4 ||[M:9/8] x3 | %14
 x3 c6- EDE | (!>!G3 F3) (Ac) x | x3 d6- ^FEF | (!>!A3 G3) ^G2 x | (A2 A) x G2 x3 | x6 |] %20
V:3
 [F,A,]>[F,B,] | [F,C]2 [F,C]2 (3(DC)[G,=B,] | [F,C]2 [F,A,]2 [F,C]>[F,C] | %3
w: ~ ~|~ ~ ~ * ~|~ ~ ~ ~|
 [F,C]2 [F,C]2 (3(B,C)[F,D] | [F,C]2 [F,C]2 [D,D]>[D,A,] | G,2 [G,C]2 (3(DC)[G,D] | %6
w: ~ ~ ~ * ~|~ ~ ~ ~|~ ~ ~ * ~|
 [C,C]4 [C,C]>[C,C] | [C,C]2 [C,C]2 (3:2:2[C,C]2 [C,C] | [F,C]2 [F,F]2 [C,E]>[C,E] | %9
w: ~ ~ ~|~ ~ ~ ~|~ ~ ~ ~|
 [F,C]2 [E,C]2 (3:2:2[D,=B,]2 [G,B,] | C2 [CE]2 [B,D]>[B,D] | [B,,B,]2 [B,,D]2 (3(G,A,)B, | %12
w: ~ ~ ~ ~|~ ~ ~ ~|~ ~ ~ * ~|
 [F,A,]4 ||[M:9/8] z3 | z6 [B,C]2 [G,B,] x3 | [A,C]3 [A,C]3 z3 | z6 [A,C]2 [A,C] x3 | %17
w: ~||Christ is|ris- en,|Christ is|
 [B,D]3 [B,D]3 [=B,F]2 [B,F] | [CF]2 [CF] [CF]2 [CF] C2 C | [F,C]6 |] %20
w: ris- en, Hal- le-|lu- jah! ris’n to set us|free.|
V:4
 x2 | x4 F,2 | x6 | x4 F,2 | x6 | G,2 G,2 x2 | x6 | x6 | x6 | x6 | C2 x4 | x4 C,2 | x4 || %13
[M:9/8] x3 | x12 | x9 | x12 | x9 | x6 C2 C | x6 |] %20

